wp-content/themes/displayblocksansa/images/logo.svg

<?xml version="1.0" encoding="UTF-8"?>
<svg width="211px" height="76px" viewBox="0 0 211 76" version="1.1" xmlns="http://www.w3.org/2000/svg" xmlns:xlink="http://www.w3.org/1999/xlink">
    <!-- Generator: Sketch 48.2 (47327) - http://www.bohemiancoding.com/sketch -->
    <title>Logo</title>
    <desc>Created with Sketch.</desc>
    <defs></defs>
    <g id="blog" stroke="none" stroke-width="1" fill="none" fill-rule="evenodd" transform="translate(-200.000000, -88.000000)">
        <g id="main-header" transform="translate(0.000000, 51.000000)" fill="#1DAFEC">
            <g id="Logo" transform="translate(200.000000, 37.000000)">
                <path d="M82.6321622,22.9275656 C82.6321622,27.1835656 84.7307568,30.1124258 88.3800792,30.1124258 C92.0298089,30.1124258 93.6265656,27.1835656 93.6265656,22.9275656 C93.6265656,18.6715656 92.0298089,15.7427054 88.3800792,15.7427054 C84.7307568,15.7427054 82.6321622,18.6715656 82.6321622,22.9275656 L82.6321622,22.9275656 Z M93.6725946,34.3226624 L93.5813514,33.041286 C91.9845946,34.1392 90.4790811,34.7802968 88.0155135,34.7802968 C80.7160541,34.7802968 76.8382162,29.3344473 76.8382162,22.9275656 C76.8382162,16.5206839 80.7160541,11.0748344 88.0155135,11.0748344 C90.3422162,11.0748344 91.892944,11.6239957 93.3528359,12.585028 L93.3528359,8.17204302e-05 L99.009917,8.17204302e-05 L99.009917,34.3226624 L93.6725946,34.3226624 L93.6725946,34.3226624 Z" id="Fill-1"></path>
                <polygon id="Fill-3" points="102.886125 7.96283871 108.543207 7.96283871 108.543207 2.28817204 102.886125 2.28817204"></polygon>
                <polygon id="Fill-5" points="102.886125 34.3225806 108.543207 34.3225806 108.543207 11.4408602 102.886125 11.4408602"></polygon>
                <path d="M112.316766,33.0869677 L112.818604,28.236043 C114.232875,29.3343656 117.289523,30.5242151 119.844334,30.5242151 C122.581631,30.5242151 123.311577,29.1513118 123.311577,28.0072258 C123.311577,26.0851613 121.349847,25.4444731 119.114388,24.7580215 C115.921282,23.7969892 112.545282,22.7444301 112.545282,18.3511398 C112.545282,15.1476989 114.46139,11.0747527 120.894039,11.0747527 C123.859037,11.0747527 126.824442,11.9442581 128.056633,12.768 L127.554388,17.6189247 C126.413847,16.4748387 123.767793,15.1476989 121.304226,15.1476989 C119.342496,15.1476989 117.518039,15.8341505 117.518039,17.6646882 C117.518039,19.8613333 119.844334,20.2274409 122.718496,21.0511828 C125.775145,21.9206882 128.968658,23.3393548 128.968658,28.0529892 C128.968658,30.8445591 127.828118,34.7802151 120.02682,34.7802151 C116.468334,34.7802151 113.639793,33.9564731 112.316766,33.0869677" id="Fill-6"></path>
                <path d="M137.952696,22.9275656 C137.952696,27.1835656 139.549453,30.1124258 143.199183,30.1124258 C146.848912,30.1124258 148.947507,27.1835656 148.947507,22.9275656 C148.947507,18.6715656 146.848912,15.7427054 143.199183,15.7427054 C139.549453,15.7427054 137.952696,18.6715656 137.952696,22.9275656 M138.226426,33.2243398 L138.226426,45.3974151 L132.569345,45.3974151 L132.569345,11.4409419 L137.49648,11.4409419 L137.952696,12.7680817 C139.503831,11.7155226 141.054966,11.0748344 143.564156,11.0748344 C150.863615,11.0748344 154.741453,16.5206839 154.741453,22.9275656 C154.741453,29.3344473 150.863615,34.7802968 143.564156,34.7802968 C141.191831,34.7802968 139.731939,34.2311355 138.226426,33.2243398" id="Fill-7"></path>
                <polygon id="Fill-8" points="196.572081 45.3972925 190.914592 45.3972925 195.979 32.8123462 186.489702 11.4408194 192.785486 11.4408194 198.625054 26.1766473 204.555864 11.4408194 210.851648 11.4408194"></polygon>
                <path d="M83.0363208,63.7877806 C83.0363208,68.0437806 84.6330776,70.9726409 88.2828073,70.9726409 C91.9325371,70.9726409 94.0307243,68.0437806 94.0307243,63.7877806 C94.0307243,59.5317806 91.9325371,56.6029204 88.2828073,56.6029204 C84.6330776,56.6029204 83.0363208,59.5317806 83.0363208,63.7877806 M83.0363208,73.9015011 L82.9450776,75.1828774 L77.6529695,75.1828774 L77.6529695,40.8602968 L83.3100506,40.8602968 L83.3100506,53.445243 C84.7699425,52.4842108 86.275456,51.9350495 88.647373,51.9350495 C95.9468324,51.9350495 99.8246703,57.3808989 99.8246703,63.7877806 C99.8246703,70.1946624 95.9468324,75.6405118 88.647373,75.6405118 C86.1385911,75.6405118 84.6330776,74.9994151 83.0363208,73.9015011" id="Fill-9"></path>
                <path d="M117.244594,63.7877806 C117.244594,68.0437806 119.342781,70.9726409 122.992511,70.9726409 C126.642241,70.9726409 128.741243,68.0437806 128.741243,63.7877806 C128.741243,59.5317806 126.642241,56.6029204 122.992511,56.6029204 C119.342781,56.6029204 117.244594,59.5317806 117.244594,63.7877806 M111.450241,63.7877806 C111.450241,57.3808989 115.693052,51.9350495 122.992511,51.9350495 C130.29197,51.9350495 134.534781,57.3808989 134.534781,63.7877806 C134.534781,70.1946624 130.29197,75.6405118 122.992511,75.6405118 C115.693052,75.6405118 111.450241,70.1946624 111.450241,63.7877806" id="Fill-10"></path>
                <path d="M136.803479,63.7877806 C136.803479,57.3808989 140.590074,51.9350495 147.889533,51.9350495 C151.539263,51.9350495 153.272885,52.713028 154.732777,53.6282968 L154.230939,58.4792215 C152.360452,57.2436086 150.535587,56.6029204 148.34575,56.6029204 C144.69602,56.6029204 142.597833,59.5317806 142.597833,63.7877806 C142.597833,68.0437806 144.69602,70.9726409 148.34575,70.9726409 C150.535587,70.9726409 152.360452,70.3319527 154.230939,69.0963398 L154.732777,73.9472645 C153.272885,74.8625333 151.539263,75.6405118 147.889533,75.6405118 C140.590074,75.6405118 136.803479,70.1946624 136.803479,63.7877806" id="Fill-11"></path>
                <polygon id="Fill-12" points="158.388291 75.1827548 158.388291 40.8601742 164.045372 40.8601742 164.045372 61.6825398 171.299209 52.3010344 177.686236 52.3010344 169.33748 63.2842602 177.686236 75.1827548 171.299209 75.1827548 164.045372 65.023271 164.045372 75.1827548"></polygon>
                <polygon id="Fill-13" points="19.5940792 75.2857634 44.0533784 75.2857634 44.0533784 69.4946452 19.5940792 69.4946452"></polygon>
                <path d="M5.77317181,57.912 L57.7325328,57.912 L57.7325328,5.79111828 L5.77317181,5.79111828 L5.77317181,57.912 Z M0,63.7031183 L63.506112,63.7031183 L63.506112,-0.000408602151 L0,-0.000408602151 L0,63.7031183 Z" id="Fill-14"></path>
                <path d="M15.4995386,45.217957 L24.3652046,45.217957 L24.3652046,36.3247312 L15.4995386,36.3247312 L15.4995386,45.217957 Z M15.4995386,24.4675054 L24.3652046,24.4675054 L24.3652046,15.5742796 L15.4995386,15.5742796 L15.4995386,24.4675054 Z" id="Fill-15"></path>
                <path d="M48.0063697,45.2092538 L40.6185183,50.580329 L39.1407037,48.182243 L41.4963272,45.9038774 L39.1407037,45.2092538 L39.1407037,36.2706731 L48.0063697,36.2706731 L48.0063697,45.2092538 Z M39.1407037,24.4673828 L48.0063697,24.4673828 L48.0063697,15.574157 L39.1407037,15.574157 L39.1407037,24.4673828 Z" id="Fill-16"></path>
                <polygon id="Fill-17" points="102.885718 75.1423441 108.542799 75.1423441 108.542799 40.8602151 102.885718 40.8602151"></polygon>
                <polygon id="Fill-18" points="158.388087 34.5313763 164.045168 34.5313763 164.045168 0.249247312 158.388087 0.249247312"></polygon>
                <path d="M179.819984,28.7852452 C178.633822,29.9293312 176.945822,30.432729 175.942146,30.432729 C173.798337,30.432729 172.885905,29.5632237 172.885905,27.6869226 C172.885905,24.9868796 176.626471,23.7055032 179.819984,23.5682129 L179.819984,28.7852452 Z M185.474621,20.088557 C185.415558,13.5917828 182.281108,11.0747935 177.219552,11.0747935 C174.391011,11.0747935 171.653714,11.7612452 168.916417,13.0883849 L169.418662,17.7104925 C171.8362,16.520643 173.615851,15.9714817 175.668824,15.9714817 C178.588608,15.9714817 179.637905,17.1155677 179.77477,19.7240839 C175.48593,19.8613742 166.954687,21.4630946 166.954687,27.9157398 C166.954687,32.2632667 169.920092,34.7802559 173.569822,34.7802559 C175.912411,34.7802559 178.252963,34.0746 179.823243,32.8099763 L180.230579,34.7536968 L185.480324,34.7536968 L185.474621,20.088557 Z" id="Fill-21"></path>
            </g>
        </g>
    </g>
</svg>

<svg width="211" height="76" viewBox="0 0 211 76" xmlns="http://www.w3.org/2000/svg"><title>Logo</title><g fill="#1DAFEC" fill-rule="evenodd"><path d="M82.632 22.928c0 4.256 2.099 7.184 5.748 7.184 3.65 0 5.247-2.928 5.247-7.184s-1.597-7.185-5.247-7.185-5.748 2.929-5.748 7.185zm11.04 11.395l-.09-1.282c-1.597 1.098-3.103 1.74-5.566 1.74-7.3 0-11.178-5.447-11.178-11.853 0-6.407 3.878-11.853 11.178-11.853 2.326 0 3.877.549 5.337 1.51V0h5.657v34.323h-5.337zM102.886 7.963h5.657V2.288h-5.657zM102.886 34.323h5.657V11.44h-5.657zM112.317 33.087l.502-4.851c1.414 1.098 4.47 2.288 7.025 2.288 2.738 0 3.468-1.373 3.468-2.517 0-1.922-1.962-2.563-4.198-3.249-3.193-.961-6.569-2.014-6.569-6.407 0-3.203 1.916-7.276 8.349-7.276 2.965 0 5.93.87 7.163 1.693l-.503 4.85c-1.14-1.143-3.786-2.47-6.25-2.47-1.962 0-3.786.686-3.786 2.517 0 2.196 2.326 2.562 5.2 3.386 3.057.87 6.25 2.288 6.25 7.002 0 2.792-1.14 6.727-8.941 6.727-3.559 0-6.387-.824-7.71-1.693M137.953 22.928c0 4.256 1.596 7.184 5.246 7.184 3.65 0 5.749-2.928 5.749-7.184s-2.1-7.185-5.749-7.185c-3.65 0-5.246 2.929-5.246 7.185m.273 10.296v12.173h-5.657V11.441h4.927l.457 1.327c1.55-1.052 3.102-1.693 5.611-1.693 7.3 0 11.177 5.446 11.177 11.853 0 6.406-3.877 11.852-11.177 11.852-2.372 0-3.832-.549-5.338-1.556M196.572 45.397h-5.657l5.064-12.585-9.49-21.371h6.296l5.84 14.736 5.93-14.736h6.297zM83.036 63.788c0 4.256 1.597 7.185 5.247 7.185s5.748-2.93 5.748-7.185c0-4.256-2.098-7.185-5.748-7.185-3.65 0-5.247 2.929-5.247 7.185m0 10.114l-.09 1.28h-5.293V40.86h5.657v12.585c1.46-.96 2.965-1.51 5.337-1.51 7.3 0 11.178 5.446 11.178 11.853S95.947 75.64 88.647 75.64c-2.508 0-4.014-.642-5.61-1.74M117.245 63.788c0 4.256 2.098 7.185 5.748 7.185 3.65 0 5.748-2.93 5.748-7.185 0-4.256-2.099-7.185-5.748-7.185-3.65 0-5.748 2.929-5.748 7.185m-5.795 0c0-6.407 4.243-11.853 11.543-11.853 7.299 0 11.542 5.446 11.542 11.853s-4.243 11.853-11.542 11.853c-7.3 0-11.543-5.446-11.543-11.853M136.803 63.788c0-6.407 3.787-11.853 11.087-11.853 3.65 0 5.383.778 6.843 1.693l-.502 4.851c-1.87-1.235-3.695-1.876-5.885-1.876-3.65 0-5.748 2.929-5.748 7.185s2.098 7.185 5.748 7.185c2.19 0 4.014-.641 5.885-1.877l.502 4.851c-1.46.916-3.194 1.694-6.843 1.694-7.3 0-11.087-5.446-11.087-11.853M158.388 75.183V40.86h5.657v20.823L171.3 52.3h6.387l-8.349 10.983 8.35 11.899h-6.388l-7.254-10.16v10.16zM19.594 75.286h24.46v-5.791h-24.46zM5.773 57.912h51.96V5.792H5.773v52.12zM0 63.703h63.506V0H0v63.703z"/><path d="M15.5 45.218h8.865v-8.893H15.5v8.893zm0-20.75h8.865v-8.894H15.5v8.894zM48.006 45.21l-7.387 5.37-1.478-2.398 2.355-2.278-2.355-.695v-8.938h8.865v8.938zm-8.865-20.743h8.865v-8.893h-8.865v8.893zM102.886 75.142h5.657V40.86h-5.657zM158.388 34.531h5.657V.25h-5.657zM179.82 28.785c-1.186 1.144-2.874 1.648-3.878 1.648-2.144 0-3.056-.87-3.056-2.746 0-2.7 3.74-3.981 6.934-4.119v5.217zm5.655-8.696c-.06-6.497-3.194-9.014-8.255-9.014-2.829 0-5.566.686-8.304 2.013l.503 4.622c2.417-1.19 4.197-1.739 6.25-1.739 2.92 0 3.969 1.145 4.106 3.753-4.29.137-12.82 1.74-12.82 8.192 0 4.347 2.965 6.864 6.615 6.864 2.342 0 4.683-.705 6.253-1.97l.408 1.944h5.25l-.006-14.665z"/></g></svg>
